X:1
T:4 Old English Lyrics
T:It was a Lover and His Lass
T:4 Old English Lyrics
T:Frederick Delius
T:1. It was a Lover and His Lass
T:William Shakespeare
T:Creative Commons copyright waiver (CC0 1.0 Universal)
T:Creative Commons copyright waiver (CC0 1.0 Universal)
T:Creative Commons copyright waiver (CC0 1.0 Universal)
T:Creative Commons copyright waiver (CC0 1.0 Universal)
T:Creative Commons copyright waiver (CC0 1.0 Universal)
C:Frederick Delius
Z:William Shakespeare
Z:Creative Commons copyright waiver (CC0 1.0 Universal)
%%score 1 { ( 2 5 ) | ( 3 4 ) }
L:1/8
Q:1/4=80
M:4/4
K:C
V:1 treble nm="Voice"
V:2 treble nm="Piano"
V:5 treble 
V:3 treble 
V:4 treble 
V:1
"^With quiet but elastic movement" z8 | z8 | z!mf! E G G B2 B2- | B ^G ^c2 B2 A A | d2 A A f2 c c | %5
w: ||It was a lov- er|_ and his lass, With a|hey, and a ho, and a|
 g2 d d f2!mf! A2 | G3 G (A2 B2) | c2 d c B2!mp![Q:1/4=92] B3/2 B/ | %8
w: hey no- ni- no That|o'er the green _|corn- field did pass. In the|
[M:3/4]"^Lightly and rather quicker" e2 (e2 d) ^c | B3 A d _B | d4 D2- | !tenuto!.D2 ^A A B =e | %12
w: Spring time, _ the|on- ly pret- ty|ring time,|_ When the birds do|
 !tenuto!.d4 ^c2 |!f! ^f3 d ^g2 |!>(!"^dim." ^f4[Q:1/4=88] ^d2 | (^c2 B2)!>)! A2 | %16
w: sing, hey|ding a ding|ding. Sweet|lo- * vers|
!<(! ^d4 ^c2!<)! |[Q:1/4=92] (e2 ^d2 ^c2) |"^rall."[Q:1/4=84] z2 z2 z!mp! B | %19
w: love the|Spring. _ _|Be-|
"^Quietly"[Q:1/4=80] G3/2 G/ ^F F E _E | (c2 !tenuto!.^c2) d d | %21
w: tween the a- cres of the|rye, _ With a|
[M:4/4] !tenuto!.f2 _e e !tenuto!.d2 d d | g2 _e e !tenuto!.d2 =e2 |[M:3/4] A e d3 c | %24
w: hey, and a ho, and a|hey no- ni- no, These|pret- ty coun- try|
 c _e (d2 e2) | z2 c3 _B | g4 f3/2 d/ |"^poco rit."[Q:1/4=76] d3 _B[Q:1/4=70] B ^F | %28
w: folk would lie _|In the|Spring- time, the|on- ly pret- ty|
"^a tempo"[Q:1/4=80] (Gg) !tenuto!.^f3 _e | (d2 =f2) (d^F) | (G2 _G_g) _e2 | c3 ^F ^d2 | %32
w: ring- * time, When|birds _ do _|sing, _ _ hey|ding- a- ding|
"^accel."[Q:1/4=84] (^f2 !tenuto!.^g2) ^c2 |[Q:1/4=88] (!courtesy!=d2 ^c2) B2 |[Q:1/4=92] ^f4 d2 | %35
w: ding _ Sweet|lo- * vers|love the|
!f! a6 |"^rall."[Q:1/4=88] ^f2 e e ^c2 |[Q:1/4=84]"^dim." B2!>(! G G ^G2!>)! | %38
w: spring.|hey no- ni- no|hey no- ni- no|
!p![Q:1/4=80]!>(! d4 !courtesy!=F F!>)! |[Q:1/4=76] d6 | z2 z2!pp! A2 | %41
w: hey no- ni-|no|And|
[M:4/4]"^a tempo"[Q:1/4=80] B2 B2 e3 G | ^G2 G2 B2!<(! ^F F!<)! |!f! d2 A A f2 d d | %44
w: there- fore take the|pre- sent time With a|hey, and a ho, and a|
 g2 d d !tenuto!.f2 A2 | G3 G A2 B2 | (c2 d) e !tenuto!.^f2[Q:1/4=84] B3/2 B/ | %47
w: hey no- ni- no; For|love is crown- ed|with _ the prime In the|
[M:3/4]!f!"^Lightly and rather quicker"[Q:1/4=84] (e2 a2) ^f3/2 d/ | e3 B d _B | d4 D2- | %50
w: spring- * time, the|on- ly pret- ty|ring time,|
 !tenuto!.D2 B B ^c c | e4 ^f2 | a ^f (=f2 B2) | (f/g/e/f/ !tenuto!.d2) A2 | %54
w: _ When the birds do|sing, hey|ding- a- ding _|ding _ _ _ _ Sweet|
[Q:1/4=80]!>(!"^dim. e rall." (f3 _d) A2 |[Q:1/4=76] (=d2 (_B2) A) ^F | %56
w: lo- * vers|love _ _ the|
[Q:1/4=70] (^C2!>)!"^molto" D2) z2 |"^a tempo"[Q:1/4=80] f2 e"^molto tranquillo" e[Q:1/4=78] _e2 | %58
w: Spring. _|Hey no- ni- no|
 d2 _d d c2 |"^poco rit."[Q:1/4=76] _B2 A A !tenuto!._A2 |!f![Q:1/4=86] g4[Q:1/4=94] f e | %61
w: hey no- ni- no|hey no- ni- no|hey no- ni-|
 d6[Q:1/4=84] | z6[Q:1/4=72] | z6 |] %64
w: no.|||
V:2
!mf!!<(![I:staff +1] (3[DEG][I:staff -1][Bdeg][I:staff +1][DEG][I:staff -1] (3[Bdea][I:staff +1][A,DEG][I:staff -1][Bdea][I:staff +1] (3[DEG][I:staff -1][Bdeg][I:staff +1][DEG][I:staff -1] (3[Bdea][I:staff +1][A,DEG][I:staff -1][Bdea]!<)! | %1
!f! [dgad']6!mf! [G,B,DG]2 | [B,^CE]4 [GBe]4 | [D^E^G^c]4 [D^FAB]4 |!f! [=FAd]4 [D_Ac]4 | %5
 [dg]4 [A,_EG=A]4 |!mf! [G,DG]4 (E2 ^E^F | G2 A^A [^D^FB]4) |[M:3/4] [EBe]2 [A^cea]2 [^F_Bd^f]2 | %9
 [G=Bde]2 [D^FAB]2 [_Acd]2 | [D^F=AB]2 [GBe]2 [D^E^G^c]2 | [D^FAB]2 [G_Bd^f]2 [D^E^G=B]2 | %12
 [^FABd]2 [A,DF]2 [B,=FA]2 |!f!{/^g} [A^c^f]2 [dfb]2 [A^B^d^g]2 | [^F^ce^f]2!p! [=CEF]2 ^D2 | %15
 ^C2[I:staff +1] [^D,A,B,]2[I:staff -1] C2 |!<(! [^C^D^FA^c]2 [B^d^fb]2 [^c^e^g^c']2!<)! | %17
!>(! [=eae']>^c'[B^db]>^f [A^cea]2 | =d>BA>=F!>)!!p! [G,G]2 | [G=deg]2 (3^GA^A [B,B]2 | %20
 [_E_e]2 (3E=EF [CE^F]2 |[M:4/4] [D_Bd]2 (3_E=EF [C=D^F]2 [C_EFB]2 | %22
"_cresc." [Gdg]2 [_eg]2 [d^fad']2 [=e^g=be']2 |[M:3/4]!f!!f!!f!!f! [ac'f'a']2!p! (3^cd^d [_G_Be]2 | %24
 [_E=G]2 (3_A=A_B [B,F=G=B]2 |!<(! [_EGB=d]2 (3_ef^f!<)! [dg-]2 |!f! g c'2 _c'!>(! _b2!>)! | %27
!p! [Gdg]2!mf! (3_Bc_d =d2 | [G,=B,DG]2 (3[^fc']d'c' [cf_b]2 | (3gag [^E=B^c]2 [^Fd]2 | %30
 [_B,_EG]2 [B,_F_B]2 (3_E=FE | [C^F]2 [^D^A^d]2 (3^f^gf | a>d'b>e'^c'>^f' | d'>^fe>^c [D^GB]2 | %34
 [^FABe]2 [DFAB]2 [=F_Acd]2 | [_ef]2 [^fab]2 [e=f]2 |!mf! [^FAB]2 [Bd=e]2 [^E^GB^c]2 | %37
 [D^FAB]2 [Bde]2 [^E^GB^c]2 |!mf! [D^FAB]4 [D=F]2 |!p! [D^FAB]4 ([D=F-]2 | F2 ^F2 A2) | %41
[M:4/4]"_a tempo" [D^FAB]4 [GBde]4 | [D^E^G^c]4 [=C=E^FB]4 |!f! [=FA=cd]4 [Adfa]4 | %44
 [_Acg]4 [=A,_EG=A]4 |!mf! [G,DG]4 (E2 ^E^F | G2 A^A [^D^FB]4) | %47
[M:3/4]!f! [EBe]2 [A^cea]2 [^F_Bd^f]2 | [=Be]2 [D^FB]2 [=F_Acd]2 | [D^F=AB]2 [GBe]2 [D^E^G^c]2 | %50
 [D^FAB]2 [GBd^f]2 [D^E^G^c]2 |!<(! [^FAB=e]2 [DF^GB]2!<)! [d^f^gb]2 | %52
!f! [^fabd']2 [=F_Acd]2 [B^c^f]2 | [_Bda]2 [D_AB]2 [^CG^c]2 | %54
!>(!"_dim. e rall." [F_Bf]2 [_E^F]2 [_DA]2 | [=DG=d]2 [_D_E]2 [__B,E_G]2 | =A4!>)! [A,^CG]2 | %57
!mf!!>(! [=CD_Ad]2 [=A,^CE]2 [=C_E_B]2 | [D=Ad]2 [_D_E]2 [C^F]2 | %59
 [_E_G_B]2 [G,^C=E]2 [=C_E_A]2!>)! |!f! [=B,DG]2 [cegc']2 [A^cea]2 | [dgad']2 [cegc']2 [_B_b][Aa] | %62
"_rall .molto" [G=Bdg]2 [D_Ac]2 _B_A |!f! [G,=B,DG]6 |] %64
V:3
 x8 |[K:bass][I:staff -1] [B,DA]6[I:staff +1] [E,,D,]2 | [A,,G,]4 [DE]4 | [A,B,]4 [D,,A,,]4 | %4
 [=CD]4 [F,C]4 |[I:staff -1] [CDF_AB]4[I:staff +1] [C,F,]4 | [_B,,,F,,_B,,]4 ([A,,G,]4 | %7
 [B,,A,]3 [^B,,^A,] [=A,B,]4) |[M:3/4] [E,,B,,G,]2 [G,A,^C]2 [E,_B,]2 | %9
[I:staff -1] [DE]2[I:staff +1] [B,,A,]2[I:staff -1] [CD=F]2 | %10
[I:staff +1] [D,,A,,]2[I:staff -1] [DE]2[I:staff +1] [D,A,]2 | %11
 [A,B,]2!mf![I:staff -1] [D=E]2[I:staff +1] [D,A,]2 | %12
[I:staff -1] D2[I:staff +1] [B,,^F,]2 [G,,D,A,]2 |[I:staff -1] [E^F]2 [AB]2 [EF]2 | %14
[I:staff +1] [A,E]2 [A,,D,]2 [B,,,^F,,B,,]2 | [^F,,^C,]2 [B,,,F,,B,,]2 [F,,C,]2 | %16
 [A,,^D,^F,]2[I:staff -1] [DF]2 [=D^E^G]2 |!f! [=G,A,^C=E]2 [A,B,^D^F]2 [G,A,CE]2 | %18
"^rall."[I:staff +1] [G,,=F,]2 [B,,,^F,,B,,]2 [A,,,E,,A,,]2 | [C,,G,,E,]2 [D,C]2 [G,,=F,]2 | %20
 [_A,,,_E,,_A,,]2 [=A,,G,]2 [D,,A,,=E,]2 | %21
[M:4/4] [G,,,D,,G,,]2 [_B,,_E,G,]2 [_A,,,_A,,]2 [D,,D,]2 | %22
 [=F,B,D]2[K:treble] [_EG]2 [=CD^FA]2 [C=F^GB]2 |[M:3/4][K:bass] [F,,C,A,]2 [G,F]2 [_G,CE]2 | %24
 [F,,C,]2 [_E,,_E,][D,,D,] [_D,,_D,]2 | [C,,G,,]2[K:treble] [A,G]2 [_B,_A]2 | %26
 [=B,=A]2 [C_B]2 [^C=B][D=c] |[K:bass] [E,_B,D]2 [_A,,_E,B,]2 [D,,A,,^F,]2 | %28
 [=F,,D,]2 _A,2[I:staff -1] D2 | [FG_Bd]2[I:staff +1] [^C,B,]2 [D,=C]2 | %30
 [C,G,]2 [_G,,_D,_G,]2 [_B,,_E,]2 | ^F,2 [F,^A,^B,]2 =A,2 | %32
[K:treble] [A,=D^F]2 [A,D=F^G]2 [G,^CE_B]2 |[K:bass]{/A,,-} [A,,^F,=CD]2 [^A,,^^F,^C]2 [B,,^G,]2 | %34
 [D,,A,,]2 [A,B,]2 [CD]2 |!f![I:staff -1] [_EF=Ac]2 [ABd]2 [E=FAc]2 | %36
[I:staff +1] [A,B,D]2[I:staff -1] [D=EG]2[I:staff +1] [B,^C]2 | %37
 [A,B,]2[I:staff -1] [DEG]2[I:staff +1] [B,^C]2 | [A,B,]4 _A,2 | [=A,B,]4 [F,,C,]2 | G,6 | %41
[M:4/4] [=A,B,]4 [DE]4 | [A,B,]4 [D,,A,,]4 | [CD]4[I:staff -1] [B,DF]4 | %44
!>(! [CDF]4!>)![I:staff +1] [C,F,]4 | [_B,,,F,,_B,,]4 [A,,G,]4 | [B,,A,]3 [^B,,^A,] [=A,=B,]4 | %47
[M:3/4] [E,,B,,G,]2[I:staff -1] [^CE]2[I:staff +1] [E,_B,D]2 | %48
[I:staff -1] [DEG]2[I:staff +1] [B,,A,]2[I:staff -1] [CD]2 | %49
[I:staff +1] [D,,A,,]2[I:staff -1] [DEG]2[I:staff +1] [D,A,]2 | %50
 [A,B,]2[I:staff -1] [DE]2[I:staff +1] [D,A,]2 | [A,B,D]2 [B,,E,^G,]2[I:staff -1] [B,E^G]2 | %52
 [ABd]2[I:staff +1] [CD]2[I:staff -1] G2 | [=FA]2[I:staff +1] [F,_B,]2 [_E,=A,]2 | %54
 [D,G,_B,]2 [_G,,_D,]2 [_E,,_B,,]2 | [_B,,,F,,_B,,]2 [B,,_E,]2 [_G,,_D,_G,]2 | [_B,,F,]4 [_E,G,]2 | %57
 [_B,,,F,,_B,,]2 [A,,G,]2 [D,,A,,]2 | [G,,D,_B,]2 [_B,,_E,]2 [_A,,=D,]2 | %59
 [_B,C]2 [A,,,E,,A,,]2 [_G,_A,]2 | [G,,F,]2[I:staff -1] [_B,EG]2 [G,^CE]2 | %61
[I:staff +1] [G,,D,=B,]2[I:staff -1] [_B,EG]2 [G,DF]2 |[I:staff +1] [G,,D,B,]2 [F,C]2 [_E,_A,]2 | %63
{/G,,,} [G,,,G,,]6 |] %64
V:4
 x8 |[K:bass]{/[D,-A,]} D,6 x2 | x8 | x8 | x8 | x8 | x8 | x8 |[M:3/4] x6 | G,2 x4 | x6 | x6 | %12
 [A,B,]2 x4 | x6 | x6 | x6 | x2 A,2 x2 | x6 | x6 | x6 | x6 |[M:4/4] x8 | x2[K:treble] D^C x4 | %23
[M:3/4][K:bass] x6 | x6 | x2[K:treble] x4 | x6 |[K:bass] x6 | x6 | x6 | x6 | [=D,,A,,=E,]2 x4 | %32
[K:treble] x6 |[K:bass] x6 | x6 | x6 | x6 | x6 | x4 [F,,C,]2 | x6 | [_E,,_B,,]6 |[M:4/4] x8 | x8 | %43
 x8 | x8 | x8 | x8 |[M:3/4] x2 [G,A,]2 x2 | x6 | x6 | x6 | x6 | x4 =A,2 | x6 | x6 | x6 | %56
 [_B,,,F,,]4 x2 | x6 | x6 | x6 | x6 | x6 | x6 | x6 |] %64
V:5
 x8 | x8 | x8 | x8 | x8 | x8 | x4 [=B,^C]4 | ^D3 E x4 |[M:3/4] x2 E2 D2 | x6 | x6 | x6 | x6 | x6 | %14
 x2[I:staff +1] ^F,2 [^D,A,]2 | [E,A,]2 x2 [E,A,]2 | x6 | x6 |[I:staff -1] [B,=DG]2 [A,^D]2 ^CD | %19
 x2 [D^F]2 E_E | dc _D2[I:staff +1] ^F,2 |[M:4/4] x2[I:staff -1] _D2[I:staff +1] ^F,2 x2 | %22
 x2[I:staff -1] (3[_B_b][cc'][^c^c'] x4 |[M:3/4] x2 [GB]2 x2 | %24
[I:staff +1] _A,2[I:staff -1] [C_G]2 x2 | x2 c2 x2 | _e2 =e2 f^f | x2 [C_G]2 [C_E^F]2 | %28
 x2 [^Fc]2 x2 | x4 (3_B=cB | x4 [G,_D]2 | x4 [^D^F^B^d]2 | [A=d^f]2 [B=f^g]2 [^cg_b]2 | %33
 [=cda]2 ^^F2 ^FE | x6 | x6 | x6 | x6 | x6 | x4[I:staff +1] ^G,2 |[I:staff -1] _D6 |[M:4/4] x8 | %42
 x8 | x8 | x8 | x4 [=B,^C]4 | ^D3 E x4 |[M:3/4] x6 | x6 | x6 | x6 | x6 | x6 | x6 | %54
 x2[I:staff +1] A,2 G,2 | F,2 G,2 x2 |[I:staff -1] (^C2"_molto" D2) x2 | x4[I:staff +1] ^F,2 | %58
 x2 G,2 ^F,2 | x6 | x6 | x4[I:staff -1] [df]2 | x4 [C^F]2 |[I:staff +1] D,6 |] %64

